X:1
T:Paddy Works on the Railway (3)
M:6/8
L:1/8
K:E
 B3/2- A/2| G2 G GFE| G2 A B2 B| E3/2 E/2 E G3/2- F/2 G| G3/2- E/2 F B,2B/2-A/2|\
 G3/2 G/2 GG-F E| G2 A B2 A| G2 E F2 D| E2- G F2 E| D2- C B,2 B,| E2 E F2 G|\
 A2- c B2B/2-A/2| GFE F2 D| E3 E||
